public/avatar/shoe/185.svg

<svg xmlns:xlink="http://www.w3.org/1999/xlink" height="38.3" width="36.05" xmlns="http://www.w3.org/2000/svg"><use height="18.4" transform="translate(7.4 11)" width="25.9" xlink:href="#a"/><defs><g id="a" fill-rule="evenodd"><path d="m-.1-3.75.5.05.7.05.05.05q3.5.65 5.3 4.05l.9 2h.05l.35.2 1.1.9.55 1 .05.25.05.15-.05.2-.05 1.1v.05L8.25 7.7 5.5 9.6.1 12.05q-2.55 1.15-5.05 1.9l-2.45.4q-3.45.55-6.5-.6-2.95-1.15-2.4-3.6l.15-.25.3-.65V8.7l.05-.4.75-2 1.1-1.55.1-.2.4-.3.35-.35v-.25q0-1.65 1.15-2.45.35-.45 1.05-.55l.35-.05.7.35Q-7.4-1-4.65-2.55l.1-.15q.3-.1.6-.3 1.2-.6 2.55-.85h.9l.4.1m.75 1.4h-.1l-.65-.1h-.35L-.8-2.5h-.8l-2.2.7-.55.3-.05.05-.85.5q-2.1 1.3-4 2.9l-.25.15-.25.2v.05l-.05-.3-.15-.2-.2.2V2l-.1-.25-.05-.1-.25.05-.6.45q-.6.7-.65 1.8v.25l-.25.25-.3.3-.1.2-.95 1.3-.2.5-.1.2-.35 1.05-.1.35v.4l.5.6.35.2.15.05.45.2.2.45 1 .85 4.85.2 3.25-.8.5-.25h.05l1.7-.75.35-.2.05-.05 1.4-.5.4-.1q.4.05.65-.25v-.3l.2-.1.15-.05 1.3-.6 1.55-.8.75-.85q.55-1.3.3-2.75L5.2 1.2Q3.65-1.75.65-2.35m-15.2 12.6.05-.65.05-.25.1-.05.75.95 1.75 1.1q2.3.95 4.85.6 3.2-.55 6.05-1.7l2.8-1.35.4-.25.05-.05.85-.55.2-.1 3.4-2.8.2-.45-.1-1.2.4.4-.9-.85-.3-.1h-.1.1l.3.1.9.85-.4-.4.1 1.2-.2.45-3.4 2.8-.2.1-.85.55-.05.05-.4.25-2.8 1.35Q-3.8 11.4-7 11.95q-2.55.35-4.85-.6l-1.75-1.1-.75-.95-.1.05-.05.25-.05.65q-.05 1.65 2.1 2.5 2.7.9 5.65.45l2.15-.35q2.15-.6 4.3-1.55l2.3-1.05 1.4-.65 1-.45 2.4-1.7 1-1.2-.05-.05.15-.95-.1.15L6.7 6.95Q5.5 8.3 3.95 9.25l-.6.3-1.45.7q-4.45 2.05-9.25 2.9-4.75.85-7.2-2.7v-.2M7.25 3.9l.45.85.15.25v.25V5l-.15-.25-.45-.85m-21.6 5.4.2-.45v-.1.1l-.2.45" fill="#2e2e2e" transform="translate(16.4 3.85)"/><path d="M-6.2 4.7h.1l1.65-.35h1.25l2.25.5q.1 0 .15.1.7.45 1.25 1.25l-.2.15-1.95-.45q-.85-.35-1.85-.35l-5.7.45 1.05-.75.8-.3 1.2-.25M-10.15 2l-.1.1-.5 1.35q-.3.3-.2.8 0 .6-.3 1l-.55-1.05v-.25q.05-1.1.65-1.8l.6-.45.25-.05.05.1.1.25" fill="#e2d5ba" transform="translate(16.4 3.85)"/><path d="m1.15 7.05.3 1.2.25-.15v.3q-.25.3-.65.25l-.4.1-1.4.5 1.25-.6h.15l-.2-.2-.65-.8-.5-.7q-.9-.9-2.25-.95-1.45-.15-2.85 0-2.2.15-4.25.95h-.05l-.3.15-.3-.15-.2-.05h-.1v-.05l-.2-.35-.05-.15-.05-.1-.45-1.45-.05-.6.55 1.05q.3-.4.3-1-.1-.5.2-.8l.5-1.35.1-.1v.05l.2-.2.15.2.05.3v.5l-.4 1.2-.15.1-.15.35-.1.25-.05.3v.8l.05.45v.3l.1-.05.2-.1 2.05-1.2-1.05.75 5.7-.45q1 0 1.85.35l1.95.45.2-.15Q-.1 5.4-.8 4.95l.7.4L.95 6.5l.2.45v.1" fill="#a58343" transform="translate(16.4 3.85)"/><path d="M-5.25-.95Q-5.2-.1-4 .3q2.65.8 5.35.5Q.95 2.25.2 3.45l-1.15 1.4-2.25-.5h-1.25l-1.65.35h-.1l-2.3-.15-1.3.3.3-2.7V2.1l.25-.15q1.9-1.6 4-2.9m1.6 7.9q.75.45-1.05.85-3.05.75-5.9 2.1-.6.3-.95-.3-.85-1.5.7-1.75l4.75-.9 1.25-.35 1.2.35m-9.1-1.35.05-.05q.9 1.2-.1 1.4l-.55.1h-.05l-.15-.1V6.8l.8-1.2m2.5-.8.1-.1.05.1h-.15" fill="#e6ecec" transform="translate(16.4 3.85)"/><path d="m-5.25-.95.85-.5.05-.05.55-.3 2.2-.7h.8l.35.05h.35l.65.1h.1l.5.5q3.7 1.7 4 6.2.1 1.65-1.45 2.5l-.5.1-1.6.2-.45-.1v-.1l-.2-.45L-.1 5.35l-.7-.4q-.05-.1-.15-.1L.2 3.45Q.95 2.25 1.35.8q-2.7.3-5.35-.5-1.2-.4-1.25-1.25M-9.5 2.1v.05l-.3 2.7 1.3-.3 2.3.15-.35.05-.9.05-2.5.45H-10l-.35.05-.05-.2v-.25l-.15-.1.1-.25.15-.35.15-.1.4-1.2V2.3l.25-.2m.4 8.9-1.35-.05-.75-.3-.45-.4q-1.05-1-.1-2.25.5-.65 1.4-.75l.05.1.05-.15 2.9-.25q3-1.1 5.35 0 .9.5 1.65 1.35l-1.4 1-3.4.95-3.95.75m-4.25-3.95.55-.1q1-.2.1-1.4l-.05.05.4-.6.75 1.6.25.25-.25.1-.75.75q-.6.7-1.2.55l.2-1.2m9.7-.1-1.2-.35-1.25.35-4.75.9q-1.55.25-.7 1.75.35.6.95.3 2.85-1.35 5.9-2.1 1.8-.4 1.05-.85m-6.6-2.15h.15l-.05-.1-.1.1" fill="#b8cbcb" transform="translate(16.4 3.85)"/><path d="m-10.4 5.1-.2-.05.05-.3.15.1v.25m3-.15-.05-.15.9-.05.35-.05-1.2.25" fill="#627d79" transform="translate(16.4 3.85)"/><path d="M.65-2.35q3 .6 4.55 3.55l.75 1.75q.25 1.45-.3 2.75l-.75.85-1.55.8-1.3.6L1.9 8l-.2.1-.25.15-.3-1.2.45.1 1.6-.2.5-.1Q5.25 6 5.15 4.35q-.3-4.5-4-6.2l-.5-.5M-11.8 4.2l.05.6.45 1.45.05.1.05.15.2.35v.05h.1l.2.05.3.15.3-.15h.05Q-8 6.15-5.8 6q1.4-.15 2.85 0 1.35.05 2.25.95l.5.7.65.8.2.2H.5l-1.25.6-.05.05-.35.2-1.7.75h-.05l-.5.25-3.25.8-4.85-.2-1-.85-.2-.45-.45-.2-.15-.05-.35-.2-.5-.6v-.4l.1-.35.35-1.05.1-.2.2-.5.95-1.3.1-.2.3-.3.25-.25m1.4.9.05.2.35-.05h.05l2.5-.45.05.15-.8.3-2.05 1.2-.2.1-.1.05v-.3l-.05-.45v-.8l.2.05m1.3 5.9 3.95-.75 3.4-.95 1.4-1Q-1.1 7.45-2 6.95q-2.35-1.1-5.35 0l-2.9.25-.05.15-.05-.1q-.9.1-1.4.75-.95 1.25.1 2.25l.45.4.75.3 1.35.05m-4.25-3.95-.2 1.2q.6.15 1.2-.55l.75-.75.25-.1-.25-.25-.75-1.6-.4.6-.8 1.2v.15l.15.1h.05" fill="#3c4d4a" transform="translate(16.4 3.85)"/><path d="M-14.55 10.25v.2q2.45 3.55 7.2 2.7 4.8-.85 9.25-2.9l1.45-.7.6-.3Q5.5 8.3 6.7 6.95L7.75 5.4l.1-.15-.15.95.05.05-1 1.2-2.4 1.7-1 .45-1.4.65-2.3 1.05q-2.15.95-4.3 1.55l-2.15.35q-2.95.45-5.65-.45-2.15-.85-2.1-2.5" fill="#b99553" transform="translate(16.4 3.85)"/></g></defs></svg>

<?xml version="1.0" encoding="UTF-8" standalone="no"?>
<svg xmlns:xlink="http://www.w3.org/1999/xlink" height="38.3px" width="36.05px" xmlns="http://www.w3.org/2000/svg">
  <g transform="matrix(1.0, 0.0, 0.0, 1.0, 23.8, 14.85)">
    <use height="18.4" transform="matrix(1.0, 0.0, 0.0, 1.0, -16.4, -3.85)" width="25.9" xlink:href="#shape0"/>
  </g>
  <defs>
    <g id="shape0" transform="matrix(1.0, 0.0, 0.0, 1.0, 16.4, 3.85)">
      <path d="M-0.1 -3.75 L0.4 -3.7 1.1 -3.65 1.15 -3.6 Q4.65 -2.95 6.45 0.45 L7.35 2.45 7.4 2.45 7.75 2.65 8.85 3.55 9.4 4.55 9.45 4.8 9.5 4.95 9.45 5.15 9.4 6.25 9.4 6.3 8.25 7.7 5.5 9.6 0.1 12.05 Q-2.45 13.2 -4.95 13.95 L-7.4 14.35 Q-10.85 14.9 -13.9 13.75 -16.85 12.6 -16.3 10.15 L-16.15 9.9 -15.85 9.25 -15.85 8.7 -15.8 8.3 -15.05 6.3 -13.95 4.75 -13.85 4.55 -13.45 4.25 -13.1 3.9 -13.1 3.65 Q-13.1 2.0 -11.95 1.2 -11.6 0.75 -10.9 0.65 L-10.55 0.6 -9.85 0.95 Q-7.4 -1.0 -4.65 -2.55 L-4.55 -2.7 Q-4.25 -2.8 -3.95 -3.0 -2.75 -3.6 -1.4 -3.85 L-1.1 -3.85 -0.95 -3.85 -0.7 -3.85 -0.65 -3.85 -0.5 -3.85 -0.1 -3.75 M0.65 -2.35 L0.55 -2.35 -0.1 -2.45 -0.45 -2.45 -0.8 -2.5 -0.95 -2.5 -1.0 -2.5 -1.15 -2.5 -1.35 -2.5 -1.6 -2.5 -3.8 -1.8 -4.35 -1.5 -4.4 -1.45 -5.25 -0.95 Q-7.35 0.35 -9.25 1.95 L-9.5 2.1 -9.75 2.3 -9.75 2.35 -9.8 2.05 -9.95 1.85 -10.15 2.05 -10.15 2.0 -10.25 1.75 -10.3 1.65 -10.55 1.7 -11.15 2.15 Q-11.75 2.85 -11.8 3.95 L-11.8 4.2 -12.05 4.45 -12.35 4.75 -12.45 4.95 -13.4 6.25 -13.6 6.75 -13.7 6.95 -14.05 8.0 -14.15 8.35 -14.15 8.45 -14.15 8.75 -13.65 9.35 -13.3 9.55 -13.15 9.6 -12.7 9.8 -12.5 10.25 -11.5 11.1 -6.65 11.3 -3.4 10.5 -2.9 10.25 -2.85 10.25 -1.15 9.5 -0.8 9.3 -0.75 9.25 0.65 8.75 1.05 8.65 Q1.45 8.7 1.7 8.4 L1.7 8.1 1.9 8.0 2.05 7.95 3.35 7.35 4.9 6.55 5.65 5.7 Q6.2 4.4 5.95 2.95 L5.2 1.2 Q3.65 -1.75 0.65 -2.35 M-14.55 10.25 L-14.5 9.6 -14.45 9.35 -14.35 9.3 -13.6 10.25 -11.85 11.35 Q-9.55 12.3 -7.0 11.95 -3.8 11.4 -0.95 10.25 L1.85 8.9 2.25 8.65 2.3 8.6 3.15 8.05 3.35 7.95 6.75 5.15 6.95 4.7 6.85 3.5 7.25 3.9 6.35 3.05 6.05 2.95 5.95 2.95 6.05 2.95 6.35 3.05 7.25 3.9 6.85 3.5 6.95 4.7 6.75 5.15 3.35 7.95 3.15 8.05 2.3 8.6 2.25 8.65 1.85 8.9 -0.95 10.25 Q-3.8 11.4 -7.0 11.95 -9.55 12.3 -11.85 11.35 L-13.6 10.25 -14.35 9.3 -14.45 9.35 -14.5 9.6 -14.55 10.25 Q-14.6 11.9 -12.45 12.75 -9.75 13.65 -6.8 13.2 L-4.65 12.85 Q-2.5 12.25 -0.35 11.3 L1.95 10.25 3.35 9.6 4.35 9.15 6.75 7.45 7.75 6.25 7.7 6.2 7.85 5.25 7.75 5.4 6.7 6.95 Q5.5 8.3 3.95 9.25 L3.35 9.55 1.9 10.25 Q-2.55 12.3 -7.35 13.15 -12.1 14.0 -14.55 10.45 L-14.55 10.25 M7.25 3.9 L7.7 4.75 7.85 5.0 7.85 5.1 7.85 5.25 7.85 5.1 7.85 5.0 7.7 4.75 7.25 3.9 M-14.35 9.3 L-14.15 8.85 -14.15 8.75 -14.15 8.85 -14.35 9.3" fill="#2e2e2e" fill-rule="evenodd" stroke="none"/>
      <path d="M-6.2 4.7 L-6.15 4.7 -6.1 4.7 -4.45 4.35 -4.25 4.35 -3.5 4.35 -3.4 4.35 -3.2 4.35 -0.95 4.85 Q-0.85 4.85 -0.8 4.95 -0.1 5.4 0.45 6.2 L0.25 6.35 -1.7 5.9 Q-2.55 5.55 -3.55 5.55 L-9.25 6.0 -8.2 5.25 -7.4 4.95 -6.2 4.7 M-10.15 2.0 L-10.25 2.1 -10.75 3.45 Q-11.05 3.75 -10.95 4.25 -10.95 4.85 -11.25 5.25 L-11.8 4.2 -11.8 3.95 Q-11.75 2.85 -11.15 2.15 L-10.55 1.7 -10.3 1.65 -10.25 1.75 -10.15 2.0" fill="#e2d5ba" fill-rule="evenodd" stroke="none"/>
      <path d="M1.15 7.05 L1.45 8.25 1.7 8.1 1.7 8.4 Q1.45 8.7 1.05 8.65 L0.65 8.75 -0.75 9.25 0.5 8.65 0.65 8.65 0.45 8.45 -0.2 7.65 -0.7 6.95 Q-1.6 6.05 -2.95 6.0 -4.4 5.85 -5.8 6.0 -8.0 6.15 -10.05 6.95 L-10.1 6.95 -10.4 7.1 -10.7 6.95 -10.9 6.9 -10.95 6.9 -11.0 6.9 -11.0 6.85 -11.2 6.5 -11.25 6.35 -11.3 6.25 -11.75 4.8 -11.8 4.2 -11.25 5.25 Q-10.95 4.85 -10.95 4.25 -11.05 3.75 -10.75 3.45 L-10.25 2.1 -10.15 2.0 -10.15 2.05 -9.95 1.85 -9.8 2.05 -9.75 2.35 -9.75 2.85 -10.15 4.05 -10.3 4.15 -10.45 4.5 -10.55 4.75 -10.6 5.05 -10.6 5.85 -10.55 6.3 -10.55 6.45 -10.55 6.55 -10.55 6.6 -10.45 6.55 -10.25 6.45 -8.2 5.25 -9.25 6.0 -3.55 5.55 Q-2.55 5.55 -1.7 5.9 L0.25 6.35 0.45 6.2 Q-0.1 5.4 -0.8 4.95 L-0.1 5.35 0.95 6.5 1.15 6.95 1.15 7.05" fill="#a58343" fill-rule="evenodd" stroke="none"/>
      <path d="M-5.25 -0.95 Q-5.2 -0.1 -4.0 0.3 -1.35 1.1 1.35 0.8 0.95 2.25 0.2 3.45 L-0.95 4.85 -3.2 4.35 -3.4 4.35 -3.5 4.35 -4.25 4.35 -4.45 4.35 -6.1 4.7 -6.15 4.7 -6.2 4.7 -8.5 4.55 -9.8 4.85 -9.5 2.15 -9.5 2.1 -9.25 1.95 Q-7.35 0.35 -5.25 -0.95 M-3.65 6.95 Q-2.9 7.4 -4.7 7.8 -7.75 8.55 -10.6 9.9 -11.2 10.2 -11.55 9.6 -12.4 8.1 -10.85 7.85 L-6.1 6.95 -4.85 6.6 -3.65 6.95 M-12.75 5.6 L-12.7 5.55 Q-11.8 6.75 -12.8 6.95 L-13.35 7.05 -13.4 7.05 -13.55 6.95 -13.55 6.8 -12.75 5.6 M-10.25 4.8 L-10.15 4.7 -10.1 4.8 -10.25 4.8" fill="#e6ecec" fill-rule="evenodd" stroke="none"/>
      <path d="M-5.25 -0.95 L-4.4 -1.45 -4.35 -1.5 -3.8 -1.8 -1.6 -2.5 -1.35 -2.5 -1.15 -2.5 -1.0 -2.5 -0.95 -2.5 -0.8 -2.5 -0.45 -2.45 -0.1 -2.45 0.55 -2.35 0.65 -2.35 1.15 -1.85 Q4.85 -0.15 5.15 4.35 5.25 6.0 3.7 6.85 L3.2 6.95 1.6 7.15 1.15 7.05 1.15 6.95 0.95 6.5 -0.1 5.35 -0.8 4.95 Q-0.85 4.85 -0.95 4.85 L0.2 3.45 Q0.95 2.25 1.35 0.8 -1.35 1.1 -4.0 0.3 -5.2 -0.1 -5.25 -0.95 M-9.5 2.1 L-9.5 2.15 -9.8 4.85 -8.5 4.55 -6.2 4.7 -6.55 4.75 -7.45 4.8 -9.95 5.25 -10.0 5.25 -10.35 5.3 -10.4 5.1 -10.4 4.85 -10.55 4.75 -10.45 4.5 -10.3 4.15 -10.15 4.05 -9.75 2.85 -9.75 2.35 -9.75 2.3 -9.5 2.1 M-9.1 11.0 L-10.45 10.95 -11.2 10.65 -11.65 10.25 Q-12.7 9.25 -11.75 8.0 -11.25 7.35 -10.35 7.25 L-10.3 7.35 -10.25 7.2 -7.35 6.95 Q-4.35 5.85 -2.0 6.95 -1.1 7.45 -0.35 8.3 L-1.75 9.3 -5.15 10.25 -9.1 11.0 M-13.35 7.05 L-12.8 6.95 Q-11.8 6.75 -12.7 5.55 L-12.75 5.6 -12.35 5.0 -11.6 6.6 -11.35 6.85 -11.6 6.95 -12.35 7.7 Q-12.95 8.4 -13.55 8.25 L-13.35 7.05 M-3.65 6.95 L-4.85 6.6 -6.1 6.95 -10.85 7.85 Q-12.4 8.1 -11.55 9.6 -11.2 10.2 -10.6 9.9 -7.75 8.55 -4.7 7.8 -2.9 7.4 -3.65 6.95 M-10.25 4.8 L-10.1 4.8 -10.15 4.7 -10.25 4.8" fill="#b8cbcb" fill-rule="evenodd" stroke="none"/>
      <path d="M-10.4 5.1 L-10.6 5.05 -10.55 4.75 -10.4 4.85 -10.4 5.1 M-7.4 4.95 L-7.45 4.8 -6.55 4.75 -6.2 4.7 -7.4 4.95" fill="#627d79" fill-rule="evenodd" stroke="none"/>
      <path d="M0.65 -2.35 Q3.65 -1.75 5.2 1.2 L5.95 2.95 Q6.2 4.4 5.65 5.7 L4.9 6.55 3.35 7.35 2.05 7.95 1.9 8.0 1.7 8.1 1.45 8.25 1.15 7.05 1.6 7.15 3.2 6.95 3.7 6.85 Q5.25 6.0 5.15 4.35 4.85 -0.15 1.15 -1.85 L0.65 -2.35 M-11.8 4.2 L-11.75 4.8 -11.3 6.25 -11.25 6.35 -11.2 6.5 -11.0 6.85 -11.0 6.9 -10.95 6.9 -10.9 6.9 -10.7 6.95 -10.4 7.1 -10.1 6.95 -10.05 6.95 Q-8.0 6.15 -5.8 6.0 -4.4 5.85 -2.95 6.0 -1.6 6.05 -0.7 6.95 L-0.2 7.65 0.45 8.45 0.65 8.65 0.5 8.65 -0.75 9.25 -0.8 9.3 -1.15 9.5 -2.85 10.25 -2.9 10.25 -3.4 10.5 -6.65 11.3 -11.5 11.1 -12.5 10.25 -12.7 9.8 -13.15 9.6 -13.3 9.55 -13.65 9.35 -14.15 8.75 -14.15 8.45 -14.15 8.35 -14.05 8.0 -13.7 6.95 -13.6 6.75 -13.4 6.25 -12.45 4.95 -12.35 4.75 -12.05 4.45 -11.8 4.2 M-10.4 5.1 L-10.35 5.3 -10.0 5.25 -9.95 5.25 -7.45 4.8 -7.4 4.95 -8.2 5.25 -10.25 6.45 -10.45 6.55 -10.55 6.6 -10.55 6.55 -10.55 6.45 -10.55 6.3 -10.6 5.85 -10.6 5.05 -10.4 5.1 M-9.1 11.0 L-5.15 10.25 -1.75 9.3 -0.35 8.3 Q-1.1 7.45 -2.0 6.95 -4.35 5.85 -7.35 6.95 L-10.25 7.2 -10.3 7.35 -10.35 7.25 Q-11.25 7.35 -11.75 8.0 -12.7 9.25 -11.65 10.25 L-11.2 10.65 -10.45 10.95 -9.1 11.0 M-13.35 7.05 L-13.55 8.25 Q-12.95 8.4 -12.35 7.7 L-11.6 6.95 -11.35 6.85 -11.6 6.6 -12.35 5.0 -12.75 5.6 -13.55 6.8 -13.55 6.95 -13.4 7.05 -13.35 7.05" fill="#3c4d4a" fill-rule="evenodd" stroke="none"/>
      <path d="M-14.55 10.25 L-14.55 10.45 Q-12.1 14.0 -7.35 13.15 -2.55 12.3 1.9 10.25 L3.35 9.55 3.95 9.25 Q5.5 8.3 6.7 6.95 L7.75 5.4 7.85 5.25 7.7 6.2 7.75 6.25 6.75 7.45 4.35 9.15 3.35 9.6 1.95 10.25 -0.35 11.3 Q-2.5 12.25 -4.65 12.85 L-6.8 13.2 Q-9.75 13.65 -12.45 12.75 -14.6 11.9 -14.55 10.25" fill="#b99553" fill-rule="evenodd" stroke="none"/>
    </g>
  </defs>
</svg>
